images/6603858.svg

<?xml version="1.0" encoding="UTF-8"?>
<svg xmlns="http://www.w3.org/2000/svg" xmlns:xlink="http://www.w3.org/1999/xlink" width="300pt" height="300pt" viewBox="0 0 300 300" version="1.1">
<defs>
<g>
<symbol overflow="visible" id="glyph0-0">
<path style="stroke:none;" d="M 0.546875 1.9375 L 0.546875 -7.75 L 6.046875 -7.75 L 6.046875 1.9375 Z M 1.171875 1.328125 L 5.4375 1.328125 L 5.4375 -7.140625 L 1.171875 -7.140625 Z M 1.171875 1.328125 "/>
</symbol>
<symbol overflow="visible" id="glyph0-1">
<path style="stroke:none;" d="M 4.328125 -7.28125 C 3.546875 -7.28125 2.921875 -6.984375 2.453125 -6.390625 C 1.992188 -5.804688 1.765625 -5.007812 1.765625 -4 C 1.765625 -2.988281 1.992188 -2.1875 2.453125 -1.59375 C 2.921875 -1.007812 3.546875 -0.71875 4.328125 -0.71875 C 5.117188 -0.71875 5.742188 -1.007812 6.203125 -1.59375 C 6.660156 -2.1875 6.890625 -2.988281 6.890625 -4 C 6.890625 -5.007812 6.660156 -5.804688 6.203125 -6.390625 C 5.742188 -6.984375 5.117188 -7.28125 4.328125 -7.28125 Z M 4.328125 -8.171875 C 5.453125 -8.171875 6.351562 -7.789062 7.03125 -7.03125 C 7.707031 -6.28125 8.046875 -5.269531 8.046875 -4 C 8.046875 -2.738281 7.707031 -1.726562 7.03125 -0.96875 C 6.351562 -0.21875 5.453125 0.15625 4.328125 0.15625 C 3.203125 0.15625 2.300781 -0.21875 1.625 -0.96875 C 0.957031 -1.71875 0.625 -2.726562 0.625 -4 C 0.625 -5.269531 0.957031 -6.28125 1.625 -7.03125 C 2.300781 -7.789062 3.203125 -8.171875 4.328125 -8.171875 Z M 4.328125 -8.171875 "/>
</symbol>
</g>
</defs>
<g id="surface30397">
<rect x="0" y="0" width="300" height="300" style="fill:rgb(100%,100%,100%);fill-opacity:1;stroke:none;"/>
<path style="fill:none;stroke-width:1.2;stroke-linecap:butt;stroke-linejoin:miter;stroke:rgb(0%,0%,0%);stroke-opacity:1;stroke-miterlimit:10;" d="M 35.25 128.375 L 60.871094 121.507812 "/>
<path style="fill:none;stroke-width:1.2;stroke-linecap:butt;stroke-linejoin:miter;stroke:rgb(0%,0%,0%);stroke-opacity:1;stroke-miterlimit:10;" d="M 60.871094 121.507812 L 79.625 140.257812 "/>
<path style="fill:none;stroke-width:1.2;stroke-linecap:butt;stroke-linejoin:miter;stroke:rgb(0%,0%,0%);stroke-opacity:1;stroke-miterlimit:10;" d="M 58.332031 127.796875 L 73.339844 142.796875 "/>
<path style="fill:none;stroke-width:1.2;stroke-linecap:butt;stroke-linejoin:miter;stroke:rgb(0%,0%,0%);stroke-opacity:1;stroke-miterlimit:10;" d="M 79.625 140.257812 L 75.480469 166.457031 "/>
<path style="fill:none;stroke-width:1.2;stroke-linecap:butt;stroke-linejoin:miter;stroke:rgb(0%,0%,0%);stroke-opacity:1;stroke-miterlimit:10;" d="M 79.625 140.257812 L 105.824219 136.105469 "/>
<path style="fill:none;stroke-width:1.2;stroke-linecap:butt;stroke-linejoin:miter;stroke:rgb(0%,0%,0%);stroke-opacity:1;stroke-miterlimit:10;" d="M 74.0625 163.675781 L 62.25 169.699219 "/>
<path style="fill:none;stroke-width:1.2;stroke-linecap:butt;stroke-linejoin:miter;stroke:rgb(100%,0%,0%);stroke-opacity:1;stroke-miterlimit:10;" d="M 62.25 169.699219 L 50.433594 175.722656 "/>
<path style="fill:none;stroke-width:1.2;stroke-linecap:butt;stroke-linejoin:miter;stroke:rgb(0%,0%,0%);stroke-opacity:1;stroke-miterlimit:10;" d="M 76.898438 169.238281 L 65.082031 175.261719 "/>
<path style="fill:none;stroke-width:1.2;stroke-linecap:butt;stroke-linejoin:miter;stroke:rgb(100%,0%,0%);stroke-opacity:1;stroke-miterlimit:10;" d="M 65.082031 175.261719 L 53.265625 181.28125 "/>
<path style="fill:none;stroke-width:1.2;stroke-linecap:butt;stroke-linejoin:miter;stroke:rgb(0%,0%,0%);stroke-opacity:1;stroke-miterlimit:10;" d="M 75.480469 166.457031 L 99.117188 178.496094 "/>
<path style=" stroke:none;fill-rule:nonzero;fill:rgb(100%,100%,100%);fill-opacity:1;" d="M 42.847656 172.003906 L 51.847656 172.003906 L 51.847656 185.003906 L 42.847656 185.003906 Z M 42.847656 172.003906 "/>
<g style="fill:rgb(100%,0%,0%);fill-opacity:1;">
  <use xlink:href="#glyph0-1" x="42.847656" y="181.905273"/>
</g>
<path style=" stroke:none;fill-rule:nonzero;fill:rgb(0%,0%,0%);fill-opacity:1;" d="M 117.867188 159.738281 L 95.804688 175.1875 L 102.425781 181.804688 Z M 117.867188 159.738281 "/>
<path style="fill:none;stroke-width:1.2;stroke-linecap:butt;stroke-linejoin:miter;stroke:rgb(0%,0%,0%);stroke-opacity:1;stroke-miterlimit:10;" d="M 117.867188 159.738281 L 105.824219 136.105469 "/>
<path style="fill:none;stroke-width:1.2;stroke-linecap:butt;stroke-linejoin:miter;stroke:rgb(0%,0%,0%);stroke-opacity:1;stroke-miterlimit:10;" d="M 144.355469 161.125 L 117.867188 159.738281 "/>
<path style="fill:none;stroke-width:1.2;stroke-linecap:butt;stroke-linejoin:miter;stroke:rgb(0%,0%,0%);stroke-opacity:1;stroke-miterlimit:10;" d="M 105.824219 136.105469 L 120.265625 113.859375 "/>
<path style=" stroke:none;fill-rule:nonzero;fill:rgb(0%,0%,0%);fill-opacity:1;" d="M 105.824219 136.105469 L 95.300781 111.3125 L 87.449219 116.414062 Z M 105.824219 136.105469 "/>
<path style="fill:none;stroke-width:1.2;stroke-linecap:butt;stroke-linejoin:miter;stroke:rgb(0%,0%,0%);stroke-opacity:1;stroke-miterlimit:10;" d="M 120.265625 113.859375 L 146.753906 115.246094 "/>
<path style="fill:none;stroke-width:1;stroke-linecap:butt;stroke-linejoin:miter;stroke:rgb(0%,0%,0%);stroke-opacity:1;stroke-miterlimit:10;" d="M 158.800781 138.875 L 158.800781 138.875 M 157.921875 136.007812 L 156.992188 136.480469 M 157.046875 133.140625 L 155.1875 134.085938 M 156.167969 130.269531 L 153.382812 131.691406 M 155.289062 127.402344 L 151.574219 129.296875 M 154.414062 124.53125 L 149.769531 126.898438 M 153.535156 121.664062 L 147.960938 124.503906 M 152.660156 118.792969 L 146.15625 122.109375 M 151.78125 115.925781 L 144.351562 119.714844 M 150.925781 113.121094 L 142.585938 117.371094 "/>
<path style="fill:none;stroke-width:1.2;stroke-linecap:butt;stroke-linejoin:miter;stroke:rgb(0%,0%,0%);stroke-opacity:1;stroke-miterlimit:10;" d="M 158.800781 138.875 L 144.355469 161.125 "/>
<path style="fill:none;stroke-width:1.2;stroke-linecap:butt;stroke-linejoin:miter;stroke:rgb(0%,0%,0%);stroke-opacity:1;stroke-miterlimit:10;" d="M 185.285156 140.261719 L 158.800781 138.875 "/>
<path style=" stroke:none;fill-rule:nonzero;fill:rgb(0%,0%,0%);fill-opacity:1;" d="M 144.355469 161.125 L 152.230469 186.878906 L 160.570312 182.628906 Z M 144.355469 161.125 "/>
<path style="fill:none;stroke-width:1.2;stroke-linecap:butt;stroke-linejoin:miter;stroke:rgb(0%,0%,0%);stroke-opacity:1;stroke-miterlimit:10;" d="M 156.402344 184.753906 L 182.886719 186.140625 "/>
<path style="fill:none;stroke-width:1.2;stroke-linecap:butt;stroke-linejoin:miter;stroke:rgb(0%,0%,0%);stroke-opacity:1;stroke-miterlimit:10;" d="M 182.886719 186.140625 L 197.332031 163.894531 "/>
<path style="fill:none;stroke-width:1.2;stroke-linecap:butt;stroke-linejoin:miter;stroke:rgb(0%,0%,0%);stroke-opacity:1;stroke-miterlimit:10;" d="M 197.332031 163.894531 L 223.820312 165.277344 "/>
<path style="fill:none;stroke-width:1.2;stroke-linecap:butt;stroke-linejoin:miter;stroke:rgb(0%,0%,0%);stroke-opacity:1;stroke-miterlimit:10;" d="M 200.304688 157.800781 L 221.496094 158.90625 "/>
<path style="fill:none;stroke-width:1.2;stroke-linecap:butt;stroke-linejoin:miter;stroke:rgb(0%,0%,0%);stroke-opacity:1;stroke-miterlimit:10;" d="M 185.285156 140.261719 L 197.332031 163.894531 "/>
<path style="fill:none;stroke-width:1.2;stroke-linecap:butt;stroke-linejoin:miter;stroke:rgb(0%,0%,0%);stroke-opacity:1;stroke-miterlimit:10;" d="M 223.820312 165.277344 L 238.261719 143.03125 "/>
<path style="fill:none;stroke-width:1.2;stroke-linecap:butt;stroke-linejoin:miter;stroke:rgb(0%,0%,0%);stroke-opacity:1;stroke-miterlimit:10;" d="M 238.097656 146.148438 L 251.34375 146.839844 "/>
<path style="fill:none;stroke-width:1.2;stroke-linecap:butt;stroke-linejoin:miter;stroke:rgb(100%,0%,0%);stroke-opacity:1;stroke-miterlimit:10;" d="M 251.34375 146.839844 L 264.585938 147.53125 "/>
<path style="fill:none;stroke-width:1.2;stroke-linecap:butt;stroke-linejoin:miter;stroke:rgb(0%,0%,0%);stroke-opacity:1;stroke-miterlimit:10;" d="M 238.425781 139.914062 L 251.667969 140.605469 "/>
<path style="fill:none;stroke-width:1.2;stroke-linecap:butt;stroke-linejoin:miter;stroke:rgb(100%,0%,0%);stroke-opacity:1;stroke-miterlimit:10;" d="M 251.667969 140.605469 L 264.914062 141.300781 "/>
<path style="fill:none;stroke-width:1.2;stroke-linecap:butt;stroke-linejoin:miter;stroke:rgb(0%,0%,0%);stroke-opacity:1;stroke-miterlimit:10;" d="M 238.261719 143.03125 L 226.21875 119.398438 "/>
<path style=" stroke:none;fill-rule:nonzero;fill:rgb(100%,100%,100%);fill-opacity:1;" d="M 260.75 137.914062 L 269.75 137.914062 L 269.75 150.914062 L 260.75 150.914062 Z M 260.75 137.914062 "/>
<g style="fill:rgb(100%,0%,0%);fill-opacity:1;">
  <use xlink:href="#glyph0-1" x="260.75" y="147.81543"/>
</g>
<path style="fill:none;stroke-width:1.2;stroke-linecap:butt;stroke-linejoin:miter;stroke:rgb(0%,0%,0%);stroke-opacity:1;stroke-miterlimit:10;" d="M 226.21875 119.398438 L 199.730469 118.015625 "/>
<path style="fill:none;stroke-width:1.2;stroke-linecap:butt;stroke-linejoin:miter;stroke:rgb(0%,0%,0%);stroke-opacity:1;stroke-miterlimit:10;" d="M 199.730469 118.015625 L 185.285156 140.261719 "/>
<path style=" stroke:none;fill-rule:nonzero;fill:rgb(0%,0%,0%);fill-opacity:1;" d="M 185.285156 140.261719 L 177.414062 114.503906 L 169.070312 118.753906 Z M 185.285156 140.261719 "/>
</g>
</svg>

<svg xmlns="http://www.w3.org/2000/svg" xmlns:xlink="http://www.w3.org/1999/xlink" width="300pt" height="300pt" viewBox="0 0 300 300"><defs><symbol overflow="visible"><path d="M.547 1.938V-7.75h5.5v9.688zm.625-.61h4.266v-8.47H1.171zm0 0"/></symbol><symbol overflow="visible" id="a"><path d="M4.328-7.28c-.78 0-1.406.296-1.875.89-.46.585-.687 1.382-.687 2.39 0 1.012.226 1.813.687 2.406.47.586 1.094.875 1.875.875.79 0 1.414-.288 1.875-.874.457-.593.688-1.394.688-2.406 0-1.008-.23-1.805-.687-2.39-.46-.594-1.086-.89-1.875-.89zm0-.892c1.125 0 2.024.383 2.703 1.14C7.708-6.28 8.048-5.27 8.048-4c0 1.262-.34 2.273-1.016 3.03C6.353-.22 5.454.157 4.33.157S2.3-.22 1.625-.97c-.668-.75-1-1.757-1-3.03 0-1.27.332-2.28 1-3.03.676-.76 1.578-1.142 2.703-1.142zm0 0"/></symbol></defs><g><path fill="#fff" d="M0 0h300v300H0z"/><path d="M35.25 128.375l25.62-6.867M60.87 121.508l18.755 18.75M58.332 127.797l15.008 15M79.625 140.258l-4.145 26.2M79.625 140.258l26.2-4.153M74.063 163.676L62.25 169.7" stroke-width="1.2" stroke="#000" stroke-miterlimit="10" fill="none"/><path d="M62.25 169.7l-11.816 6.023" stroke-width="1.2" stroke="#f00" stroke-miterlimit="10" fill="none"/><path d="M76.898 169.238l-11.816 6.024" stroke-width="1.2" stroke="#000" stroke-miterlimit="10" fill="none"/><path d="M65.082 175.262l-11.816 6.02" stroke-width="1.2" stroke="#f00" stroke-miterlimit="10" fill="none"/><path d="M75.48 166.457l23.637 12.04" stroke-width="1.2" stroke="#000" stroke-miterlimit="10" fill="none"/><path d="M42.848 172.004h9v13h-9zm0 0" fill="#fff"/><use xlink:href="#a" x="42.848" y="181.905" fill="#f00"/><path d="M117.867 159.738l-22.062 15.45 6.62 6.617zm0 0"/><path d="M117.867 159.738l-12.043-23.633M144.355 161.125l-26.488-1.387M105.824 136.105l14.442-22.246" stroke-width="1.2" stroke="#000" stroke-miterlimit="10" fill="none"/><path d="M105.824 136.105L95.3 111.313l-7.85 5.1zm0 0"/><path d="M120.266 113.86l26.488 1.386" stroke-width="1.2" stroke="#000" stroke-miterlimit="10" fill="none"/><path d="M158.8 138.875m-.878-2.867l-.93.472m.055-3.34l-1.86.946m.98-3.816l-2.784 1.42m1.906-4.288l-3.716 1.895m2.84-4.766l-4.644 2.368m3.765-5.234l-5.574 2.84m4.7-5.71l-6.504 3.315m5.625-6.184l-7.428 3.79m6.574-6.595l-8.34 4.25" stroke="#000" stroke-miterlimit="10" fill="none"/><path d="M158.8 138.875l-14.445 22.25M185.285 140.262l-26.484-1.387" stroke-width="1.2" stroke="#000" stroke-miterlimit="10" fill="none"/><path d="M144.355 161.125l7.875 25.754 8.34-4.25zm0 0"/><path d="M156.402 184.754l26.485 1.387M182.887 186.14l14.445-22.245M197.332 163.895l26.488 1.382M200.305 157.8l21.19 1.106M185.285 140.262l12.047 23.633M223.82 165.277l14.442-22.246M238.098 146.148l13.246.692" stroke-width="1.2" stroke="#000" stroke-miterlimit="10" fill="none"/><path d="M251.344 146.84l13.242.69" stroke-width="1.2" stroke="#f00" stroke-miterlimit="10" fill="none"/><path d="M238.426 139.914l13.242.69" stroke-width="1.2" stroke="#000" stroke-miterlimit="10" fill="none"/><path d="M251.668 140.605l13.246.696" stroke-width="1.2" stroke="#f00" stroke-miterlimit="10" fill="none"/><path d="M238.262 143.03L226.22 119.4" stroke-width="1.2" stroke="#000" stroke-miterlimit="10" fill="none"/><path d="M260.75 137.914h9v13h-9zm0 0" fill="#fff"/><use xlink:href="#a" x="260.75" y="147.815" fill="#f00"/><path d="M226.22 119.398l-26.49-1.382M199.73 118.016l-14.445 22.246" stroke-width="1.2" stroke="#000" stroke-miterlimit="10" fill="none"/><path d="M185.285 140.262l-7.87-25.758-8.345 4.25zm0 0"/></g></svg>
